X:1
T:Stamford, 87.87.87
T:A. J. Foxwell
T:Stamford, 87.87.87
T:Public Domain
C:A. J. Foxwell
Z:Public Domain
%%score ( 1 2 ) ( 3 4 )
L:1/8
M:3/4
K:G
V:1 treble 
V:2 treble 
V:3 bass 
V:4 bass 
V:1
 [DG]4 [DB]2 | (B2 A2) [EG]2 | [FA]4 [Fc]2 | [Ac]2 ([GB]2 [FA]2) | [GB]4 [Gd]2 | %5
 ([Gd]2 [Fc]2) [GB]2 | [Ac]4 [GB]2 | [FA]6 | [DG]4 [DB]2 | (B2 A2) [EG]2 | [FA]4 [Fc]2 | %11
 ([Ac]2 [GB]2) [FA]2 | [GB]4 [DB]2 | ([DA]2 [^CG]2) [DF]2 | [DF]4 [^CE]2 | D6 | [A,F]4 [G,G]2 | %17
 ([DG]2 [DF]2) z2 | [FA]2 [GB]2 [Ac]2 | [Ac]2 [GB]2 z2 | [Ge]4 [Ge]2 | ([Gd]2 [Fc]2) B2 | %22
 [GB]4 [FA]2 | G6 |] %24
V:2
 x6 | D4 x2 | x6 | x6 | x6 | x6 | x6 | x6 | x6 | D4 x2 | x6 | x6 | x6 | x6 | x6 | D6 | x6 | x6 | %18
 x6 | x6 | x6 | x4 B2 | x6 | G6 |] %24
V:3
 [G,B,]4 G,2 | (G,2 F,2) [E,^C]2 | [D,D]4 [D,A,]2 | [D,D]4 [D,D]2 | [G,D]4 [B,D]2 | %5
 (B,2 A,2) [G,D]2 | [F,D]4 [G,D]2 | [D,D]6 | [G,B,]4 G,2 | (G,2 F,2) [E,^C]2 | [D,D]4 [D,A,]2 | %11
 [D,D]4 [D,D]2 | [G,D]4 G,2 | (F,2 E,2) [D,A,]2 | [A,,A,]4 [A,,G,]2 | [D,F,]6 | (D2 C2) [D,B,]2 | %17
 [D,B,]2 [D,A,]2 z2 | [D,D]4 [D,D]2 | [G,D]2 [G,D]2 z2 | C4 C2 | (B,2 A,2) [G,D]2 | [D,D]4 [D,C]2 | %23
 [G,,B,]6 |] %24
V:4
 x4 G,2 | D4 x2 | x6 | x6 | x6 | D4 x2 | x6 | x6 | x4 G,2 | D4 x2 | x6 | x6 | x4 G,2 | G,4 x2 | %14
 x6 | x6 | D,4 x2 | x6 | x6 | x6 | C4 C2 | D4 x2 | x6 | x6 |] %24

